X: 42372
T: Well Field, The
R: reel
M: 4/4
K: Dmajor
|:DC|A,DDE FD E/F/G|AdcA defg|agec dA B/c/d|cAAG EDCE|
~D3 E FD E/F/G|ABcA defg|agec dA B/c/d|cAGE D2:|
|:E/F/G|AddA fdge|ag f/g/a gfec|d=cAd cA G/F/E|=CDEC G,CEG|
DA F/G/A dA F/G/A|~d3 e fedc|Aa f/g/a gfed|cA G/F/E D2:|

